symbols/web/phone_in_talk/materialsymbolssharp/phone_in_talk_wght600gradN25fill1_40px.svg

<svg xmlns="http://www.w3.org/2000/svg" height="40" width="40"><path d="M32.5 18.917q-.167-4.875-3.604-8.334-3.438-3.458-8.354-3.625V4.042q3.041.083 5.729 1.27Q28.958 6.5 30.979 8.5q2.021 2 3.209 4.688 1.187 2.687 1.27 5.729Zm-7.167 0q-.208-1.917-1.541-3.25-1.334-1.334-3.25-1.5V11.25q3.125.125 5.333 2.333 2.208 2.209 2.375 5.334Zm7.5 16.416q-5.166 0-10.25-2.458-5.083-2.458-9.104-6.5-4.021-4.042-6.5-9.125T4.5 7q0-.542.042-1.229.041-.688.166-1.188H15l1.917 8.709-5.292 5q1.958 3.208 4.437 5.666 2.48 2.459 5.563 4.25l5.333-5.291 8.334 1.875v10.333q-.542.083-1.209.146-.666.062-1.25.062Z"/></svg>

<svg xmlns="http://www.w3.org/2000/svg" height="40" width="40"><path d="M32.5 18.917Q32.333 14.042 28.896 10.583Q25.458 7.125 20.542 6.958V4.042Q23.583 4.125 26.271 5.312Q28.958 6.5 30.979 8.5Q33 10.5 34.188 13.188Q35.375 15.875 35.458 18.917ZM25.333 18.917Q25.125 17 23.792 15.667Q22.458 14.333 20.542 14.167V11.25Q23.667 11.375 25.875 13.583Q28.083 15.792 28.25 18.917ZM32.833 35.333Q27.667 35.333 22.583 32.875Q17.5 30.417 13.479 26.375Q9.458 22.333 6.979 17.25Q4.5 12.167 4.5 7Q4.5 6.458 4.542 5.771Q4.583 5.083 4.708 4.583H15L16.917 13.292L11.625 18.292Q13.583 21.5 16.062 23.958Q18.542 26.417 21.625 28.208L26.958 22.917L35.292 24.792V35.125Q34.75 35.208 34.083 35.271Q33.417 35.333 32.833 35.333Z"/></svg>
